X: 214
T: Jolly Old Jim (jig)
C: BB 12/05
N: 102051
L: 1/8
M: 6/8
R: jig
Q: 1/4 = 170
K: D
A | "D" dcd "Bm" Bcd | "D" ABA AFD |"D" dcd "G" BGB | "A7" AGF E2 E |
"Bm" DFB "D"AFD | "G"GFG Bcd |"D" ABA "A7" GFE | "D" FDD "D" D2 :|
A | "D" dcd fed | "Bm" fef fga |"G" bag "D" fed | "Em" Bef "A" e2 e |
"D" dcd fed | "Bm" fef fga |"G" bag "D" fgf | "A" ece "D" d2 :|
%%%%%%%%%%%%%%%%%%%%%%
